X:1
T:The Drunkard's Lone Child
M:6/8
L:1/8
K:C
 G2 G/2A/2 GEG| cGc e3| d2 d/2e/2 dAB| cBA G3| G2 G/2A/2 GEG| cGc e3|\
 d2 d/2e/2 dAB| ced c3|
